src/assets/logo.svg

<svg width="101" height="36" viewBox="0 0 101 36" fill="none" xmlns="http://www.w3.org/2000/svg">
<path d="M92.4549 23.9824H78.8298C78.0118 23.9824 77.3488 24.6505 77.3488 25.4749C77.3488 26.2993 78.0118 26.9675 78.8298 26.9675H92.4549C93.273 26.9675 93.936 26.2993 93.936 25.4749C93.936 24.6505 93.273 23.9824 92.4549 23.9824Z" fill="#4642BC"/>
<path d="M20.7154 20.2275L16.9217 17.767L20.7154 15.3067C21.4032 14.8609 21.6021 13.9375 21.1594 13.2441C20.7167 12.5511 19.8006 12.3501 19.1126 12.7968L15.6662 15.0318V10.9017C15.6662 10.0773 15.0031 9.40912 14.1851 9.40912C13.367 9.40912 12.704 10.0773 12.704 10.9017V15.0316L9.25779 12.7966C8.57013 12.3503 7.65363 12.5505 7.21097 13.2439C6.76811 13.9371 6.96695 14.8607 7.65482 15.3066L11.4482 17.767L7.65462 20.2273C6.96676 20.6734 6.76791 21.5968 7.21077 22.29C7.49385 22.7333 7.97064 22.975 8.45749 22.975C8.73188 22.975 9.00963 22.8983 9.2576 22.7373L12.7038 20.5022V24.6322C12.7038 25.4566 13.3668 26.1247 14.1849 26.1247C15.0029 26.1247 15.666 25.4566 15.666 24.6322V20.5024L19.1124 22.7375C19.3603 22.8983 19.6379 22.9752 19.9125 22.9752C20.3991 22.9752 20.8761 22.7335 21.1592 22.2902C21.6021 21.597 21.4032 20.6734 20.7154 20.2275Z" fill="#4642BC"/>
<path d="M38.3565 20.2275L34.5629 17.767L38.3565 15.3067C39.0443 14.8606 39.2432 13.9372 38.8003 13.244C38.3575 12.5511 37.4416 12.3501 36.7535 12.7968L33.3073 15.0318V10.9019C33.3073 10.0775 32.6443 9.4093 31.8262 9.4093C31.0081 9.4093 30.3451 10.0775 30.3451 10.9019V15.032L26.8987 12.797C26.2108 12.3507 25.2944 12.5508 24.8519 13.2442C24.409 13.9374 24.6079 14.861 25.2957 15.3069L29.0893 17.767L25.2957 20.2273C24.6079 20.6734 24.409 21.5968 24.8519 22.29C25.135 22.7333 25.6118 22.975 26.0986 22.975C26.373 22.975 26.6507 22.8983 26.8987 22.7373L30.3451 20.5022V24.6324C30.3451 25.4568 31.0081 26.1249 31.8262 26.1249C32.6443 26.1249 33.3073 25.4568 33.3073 24.6324V20.5024L36.7535 22.7375C37.0015 22.8983 37.279 22.9752 37.5536 22.9752C38.0403 22.9752 38.5172 22.7335 38.8003 22.2902C39.2432 21.597 39.0443 20.6734 38.3565 20.2275Z" fill="#4642BC"/>
<path d="M55.9978 20.2275L52.2042 17.767L55.9978 15.3067C56.6856 14.8608 56.8845 13.9374 56.4418 13.244C55.999 12.551 55.0831 12.3501 54.395 12.7968L50.9486 15.0318V10.9019C50.9486 10.0775 50.2856 9.4093 49.4675 9.4093C48.6495 9.4093 47.9864 10.0775 47.9864 10.9019V15.0318L44.54 12.7968C43.8524 12.3505 42.9355 12.5507 42.4932 13.244C42.0503 13.9372 42.2492 14.8608 42.937 15.3067L46.7305 17.767L42.9368 20.2273C42.249 20.6734 42.0501 21.5968 42.493 22.29C42.7761 22.7333 43.2529 22.975 43.7397 22.975C44.0141 22.975 44.2919 22.8983 44.5398 22.7373L47.9862 20.5022V24.6322C47.9862 25.4566 48.6493 26.1247 49.4673 26.1247C50.2854 26.1247 50.9484 25.4566 50.9484 24.6322V20.5024L54.3948 22.7375C54.6428 22.8983 54.9203 22.9752 55.1949 22.9752C55.6816 22.9752 56.1587 22.7335 56.4416 22.2902C56.8845 21.597 56.6856 20.6734 55.9978 20.2275Z" fill="#4642BC"/>
<path d="M73.6391 20.2275L69.8455 17.767L73.6391 15.3068C74.327 14.8607 74.5258 13.9373 74.083 13.2441C73.6403 12.5511 72.7242 12.3501 72.0361 12.7968L68.5897 15.0318V10.9017C68.5897 10.0773 67.9267 9.40912 67.1087 9.40912C66.2906 9.40912 65.6276 10.0773 65.6276 10.9017V15.0316L62.1814 12.7966C61.4937 12.3503 60.5772 12.5505 60.1345 13.2439C59.6917 13.9371 59.8905 14.8607 60.5784 15.3066L64.372 17.767L60.5784 20.2273C59.8905 20.6734 59.6917 21.5968 60.1345 22.29C60.4176 22.7333 60.8944 22.9751 61.3813 22.9751C61.6557 22.9751 61.9334 22.8983 62.1814 22.7373L65.6276 20.5022V24.6324C65.6276 25.4568 66.2906 26.1249 67.1087 26.1249C67.9267 26.1249 68.5897 25.4568 68.5897 24.6324V20.5024L72.0361 22.7375C72.2841 22.8983 72.5617 22.9753 72.8362 22.9753C73.3229 22.9753 73.7999 22.7335 74.083 22.2902C74.5258 21.597 74.327 20.6734 73.6391 20.2275Z" fill="#4642BC"/>
<path d="M53.6151 32.5492H2.96214V2.9851H21.3275C22.1456 2.9851 22.8086 2.31695 22.8086 1.49255C22.8086 0.668147 22.1456 0 21.3275 0H2.46838C1.10725 0 0 1.11603 0 2.48771V33.0468C0 34.4185 1.10725 35.5343 2.46838 35.5343H53.6149C54.433 35.5343 55.096 34.8662 55.096 34.0418C55.096 33.2174 54.4332 32.5492 53.6151 32.5492Z" fill="#4642BC"/>
<path d="M98.5315 0H31.9913C31.1733 0 30.5103 0.668147 30.5103 1.49255C30.5103 2.31695 31.1733 2.9851 31.9913 2.9851H98.0379V32.549H63.884C63.0659 32.549 62.4029 33.2172 62.4029 34.0416C62.4029 34.866 63.0659 35.5341 63.884 35.5341H98.5317C99.8928 35.5341 101 34.4183 101 33.0466V2.48771C101 1.11603 99.8926 0 98.5315 0Z" fill="#4642BC"/>
</svg>

<svg width="101" height="36" fill="none" xmlns="http://www.w3.org/2000/svg"><path d="M92.455 23.982H78.83c-.818 0-1.481.669-1.481 1.493 0 .824.663 1.492 1.48 1.492h13.626c.818 0 1.481-.668 1.481-1.492 0-.825-.663-1.493-1.481-1.493zM20.715 20.227l-3.793-2.46 3.793-2.46a1.5 1.5 0 00.444-2.063 1.474 1.474 0 00-2.046-.447l-3.447 2.235v-4.13c0-.825-.663-1.493-1.48-1.493-.819 0-1.482.668-1.482 1.493v4.13l-3.446-2.235a1.474 1.474 0 00-2.047.447 1.5 1.5 0 00.444 2.063l3.793 2.46-3.793 2.46a1.5 1.5 0 00-.444 2.063 1.477 1.477 0 002.047.447l3.446-2.235v4.13c0 .825.663 1.493 1.48 1.493.819 0 1.482-.668 1.482-1.493v-4.13l3.446 2.236a1.477 1.477 0 002.047-.447 1.5 1.5 0 00-.444-2.064zM38.356 20.227l-3.793-2.46 3.793-2.46a1.5 1.5 0 00.444-2.063 1.474 1.474 0 00-2.046-.447l-3.447 2.235v-4.13c0-.824-.663-1.493-1.48-1.493-.819 0-1.482.668-1.482 1.493v4.13L26.9 12.797a1.474 1.474 0 00-2.047.447 1.5 1.5 0 00.444 2.063l3.793 2.46-3.793 2.46a1.5 1.5 0 00-.444 2.063 1.477 1.477 0 002.047.447l3.446-2.235v4.13c0 .825.663 1.493 1.481 1.493.818 0 1.481-.668 1.481-1.493v-4.13l3.447 2.236a1.477 1.477 0 002.047-.447 1.5 1.5 0 00-.445-2.064zM55.998 20.227l-3.794-2.46 3.794-2.46a1.5 1.5 0 00.444-2.063 1.474 1.474 0 00-2.047-.447l-3.446 2.235v-4.13c0-.824-.663-1.493-1.481-1.493-.819 0-1.482.668-1.482 1.493v4.13l-3.446-2.235a1.474 1.474 0 00-2.047.447 1.5 1.5 0 00.444 2.063l3.794 2.46-3.794 2.46a1.5 1.5 0 00-.444 2.063 1.477 1.477 0 002.047.447l3.446-2.235v4.13c0 .825.663 1.493 1.481 1.493.818 0 1.481-.668 1.481-1.493v-4.13l3.447 2.236a1.477 1.477 0 002.047-.447 1.5 1.5 0 00-.444-2.064zM73.64 20.227l-3.794-2.46 3.793-2.46a1.5 1.5 0 00.444-2.063 1.474 1.474 0 00-2.047-.447l-3.446 2.235v-4.13c0-.825-.663-1.493-1.481-1.493-.818 0-1.481.668-1.481 1.493v4.13l-3.447-2.235a1.474 1.474 0 00-2.046.447 1.5 1.5 0 00.443 2.063l3.794 2.46-3.794 2.46a1.5 1.5 0 00-.444 2.063 1.477 1.477 0 002.047.447l3.447-2.235v4.13c0 .825.663 1.493 1.48 1.493.819 0 1.482-.668 1.482-1.493v-4.13l3.446 2.236a1.477 1.477 0 002.047-.447 1.5 1.5 0 00-.444-2.064z" fill="#209eff"/><path d="M53.615 32.55H2.962V2.984h18.366c.818 0 1.48-.668 1.48-1.492 0-.825-.662-1.493-1.48-1.493H2.468A2.48 2.48 0 000 2.488v30.559a2.48 2.48 0 002.468 2.487h51.147c.818 0 1.481-.668 1.481-1.492 0-.825-.663-1.493-1.48-1.493zM98.531 0h-66.54c-.818 0-1.48.668-1.48 1.493 0 .824.662 1.492 1.48 1.492h66.047V32.55H63.884c-.818 0-1.481.668-1.481 1.493 0 .824.663 1.492 1.481 1.492h34.648A2.48 2.48 0 00101 33.047V2.487A2.481 2.481 0 0098.531 0z" fill="#209eff"/></svg>
